X: 14
I: linebreak $
T: Oringe
T: for three
C: Richard Schweitzer, CC BY-NC-SA 3.0
P: AA BBB CCC D E
N: Permission granted to copy within the SCA.
K: F major
M: 6/8
L: 1/8
P: A
"^Drone: F/C"c2d c2B | A3 F3 | G2F GA2 | G3 G3 | c2d c2B | AFG F2A | 
c2B GA2 | F6 :: 
P: B
F3 G3 | A3 A3 | F2F G2B | A2B A3 | 
F2F G2c | B2F G3 | F2A BGc | BAG F3 "^(3)":: 
P: C
c3 B3 | A3 F2G "^(3)":| 
P: D
c2d c2B | A3 F3 | c2d c2B | AFG F2A || 
P: E
c2B GA2 | F6 |] 


